X: 38767
T: Struan Robertson's Rant
R: strathspey
M: 4/4
K: Eminor
|:F|E/E/E GA B>ABd|D/D/D dF D/E/F/G/ AF|E/E/E GA B>ABd|eBdF E/E/E E:|
|:f|e>fge b>fge|f>edg a/g/f/e/ df|efge bfge|dBAF E/E/E E:|
|:B/|G>BE>B G>BE>B|F>AD>A F>AD>A|G>BE>B G>BE>G|f>e^df e/e/e e:|
f|g>be>b g>be>b|f>ad>a f>ad>a|g>be>b g>be>g|f>e^df e/e/e e2|
g>be>b g>be>b|f>ad>a f>ad>a|b>fg>e f>de>^c|d/^c/B/A/ dF E/E/E E2||

